X: 25
T:Atholl Highlanders
M:6/8
L:1/8
R:jig/pipe march
A:Scotland
K:A
e3  ecA|ecA Bcd|e3 ecA|Bcd cBA|e3  ecA|ecA Bcd|eae fed|cdB A3 :|
|:Ace Ace|Adf Adf|Ace Ace|Bcd c2 B|Ace Ace|Adf Adf|eae fed|cdB A3 :|
|:a2 e edc|a2 e edc|a2 e edc|Bcd cBA|a2 e edc|a2 e edc|eae fed|cdB A3 :|
|:ccc cBA |ddd dcB|ccc cBA|B=GG GAB|ccc cBA |ddd dcd|eae fed|cdB A3  :|
